src/icons/vertical-align-bottom.svg

<svg xmlns="http://www.w3.org/2000/svg" width="8" height="8" viewBox="0 0 8 8">
  <path d="M.09 0c-.06 0-.09.04-.09.09v4.81c0 .05.04.09.09.09h1.81c.05 0 .09-.04.09-.09v-4.81c0-.06-.04-.09-.09-.09h-1.81zm6 0c-.05 0-.09.04-.09.09v4.81c0 .05.04.09.09.09h1.81c.05 0 .09-.04.09-.09v-4.81c0-.06-.04-.09-.09-.09h-1.81zm-3 2c-.06 0-.09.04-.09.09v2.81c0 .05.04.09.09.09h1.81c.05 0 .09-.04.09-.09v-2.81c0-.06-.04-.09-.09-.09h-1.81zm-3.09 4v1h8v-1h-8z"
  />
</svg>

<svg xmlns="http://www.w3.org/2000/svg" viewBox="0 0 8 8"><path d="M.09 0C.03 0 0 .04 0 .09V4.9c0 .05.04.09.09.09H1.9c.05 0 .09-.04.09-.09V.09C1.99.03 1.95 0 1.9 0H.09zm6 0A.09.09 0 0 0 6 .09V4.9c0 .05.04.09.09.09H7.9c.05 0 .09-.04.09-.09V.09C7.99.03 7.95 0 7.9 0H6.09zm-3 2c-.06 0-.09.04-.09.09V4.9c0 .05.04.09.09.09H4.9c.05 0 .09-.04.09-.09V2.09c0-.06-.04-.09-.09-.09H3.09zM0 6v1h8V6H0z"/></svg>
